public/assets/images/Dribbble.svg

<svg height="250" viewBox="0 0 251 250" width="251" xmlns="http://www.w3.org/2000/svg"><path d="m1276.42564 291c-68.89559.00522-124.73897 55.852088-124.73897 124.74942 0 68.885151 55.84338 124.738399 124.73897 124.738399 68.8956 0 124.7413-55.853248 124.74884-124.738399-.00754-68.897332-55.85324-124.7442-124.74884-124.74942zm76.43214 64.678654c12.17111 15.455337 19.79176 34.592808 20.7529 55.49188-14.08237-2.988979-27.38805-4.443736-39.79234-4.443736v-.0029h-.09165c-9.98666 0-19.35905.906612-28.19258 2.473318-2.14675-5.261601-4.32308-10.315545-6.51566-15.156033 19.67286-8.62877 38.55569-20.915313 53.83933-38.362529zm-76.43214-37.25406c22.95592 0 44.01509 8.025522 60.68794 21.386311-12.7587 15.274942-29.59919 26.337587-47.79176 34.149072-12.78307-24.718678-25.13515-42.401972-33.57889-53.212877 6.68387-1.483179 13.58295-2.322506 20.68271-2.322506zm-42.98665 10.145012c6.75522 7.979118 20.28016 25.529582 34.72563 52.930974-29.37877 8.74536-58.96229 10.799884-76.86195 10.794664-.51044 0-1.01508 0-1.51044-.005221h-.01624c-3.0145 0-5.60673-.047564-7.77088-.113689 6.98318-27.943155 26.12645-51.085267 51.43388-63.606728zm-54.33585 87.179814c0-.457657.01624-.922854.0435-1.401972 2.779.102668 6.34281.190835 10.63225.190835h.02436c19.56323-.12761 53.72042-1.762181 88.33643-12.690835 1.88689 4.12587 3.75464 8.421694 5.60093 12.88167-23.11659 7.731439-41.32309 20.048724-54.78944 32.314966-12.96404 11.808004-21.72274 23.50348-26.84049 31.310904-14.32077-16.955336-23-38.744779-23.00754-62.605568zm97.3225 97.326566c-21.65835 0-41.62065-7.162993-57.81496-19.182134 3.44199-5.668794 10.82192-16.551625 22.57367-27.796984 12.09106-11.586427 28.7819-23.513921 50.57424-30.611949 7.40719 20.763921 14.10963 44.5 19.2152 71.218677-10.7558 4.095708-22.37761 6.37239-34.54815 6.37239zm55.08179-17.281902c-4.93793-24.164154-11.14559-45.953597-17.96172-65.399072 6.32077-.906613 12.95592-1.418214 19.9594-1.418214h.25174.01624.01624c11.60789 0 24.36369 1.442576 38.19722 4.585847-4.78886 25.733759-19.69432 47.896752-40.47912 62.231439z" fill="#fff" fill-rule="evenodd" transform="translate(-1151 -291)"/></svg>

<?xml version="1.0" encoding="UTF-8" standalone="no"?>
<svg width="251px" height="250px" viewBox="0 0 251 250" version="1.1" xmlns="http://www.w3.org/2000/svg" xmlns:xlink="http://www.w3.org/1999/xlink">
    <!-- Generator: Sketch 39.1 (31720) - http://www.bohemiancoding.com/sketch -->
    <title>Dribbble</title>
    <desc>Created with Sketch.</desc>
    <defs></defs>
    <g id="Page-1" stroke="none" stroke-width="1" fill="none" fill-rule="evenodd">
        <g id="Artboard" transform="translate(-1151.000000, -291.000000)" fill="#FFFFFF">
            <path d="M1276.42564,291 C1207.53005,291.00522 1151.68667,346.852088 1151.68667,415.74942 C1151.68667,484.634571 1207.53005,540.487819 1276.42564,540.487819 C1345.32124,540.487819 1401.16694,484.634571 1401.17448,415.74942 C1401.16694,346.852088 1345.32124,291.00522 1276.42564,291 L1276.42564,291 Z M1352.85778,355.678654 C1365.02889,371.133991 1372.64954,390.271462 1373.61068,411.170534 C1359.52831,408.181555 1346.22263,406.726798 1333.81834,406.726798 L1333.81834,406.723898 L1333.72669,406.723898 C1323.74003,406.723898 1314.36764,407.63051 1305.53411,409.197216 C1303.38736,403.935615 1301.21103,398.881671 1299.01845,394.041183 C1318.69131,385.412413 1337.57414,373.12587 1352.85778,355.678654 L1352.85778,355.678654 Z M1276.42564,318.424594 C1299.38156,318.424594 1320.44073,326.450116 1337.11358,339.810905 C1324.35488,355.085847 1307.51439,366.148492 1289.32182,373.959977 C1276.53875,349.241299 1264.18667,331.558005 1255.74293,320.7471 C1262.4268,319.263921 1269.32588,318.424594 1276.42564,318.424594 L1276.42564,318.424594 Z M1233.43899,328.569606 C1240.19421,336.548724 1253.71915,354.099188 1268.16462,381.50058 C1238.78585,390.24594 1209.20233,392.300464 1191.30267,392.295244 C1190.79223,392.295244 1190.28759,392.295244 1189.79223,392.290023 L1189.77599,392.290023 C1186.76149,392.290023 1184.16926,392.242459 1182.00511,392.176334 C1188.98829,364.233179 1208.13156,341.091067 1233.43899,328.569606 L1233.43899,328.569606 Z M1179.10314,415.74942 C1179.10314,415.291763 1179.11938,414.826566 1179.14664,414.347448 C1181.92564,414.450116 1185.48945,414.538283 1189.77889,414.538283 L1189.80325,414.538283 C1209.36648,414.410673 1243.52367,412.776102 1278.13968,401.847448 C1280.02657,405.973318 1281.89432,410.269142 1283.74061,414.729118 C1260.62402,422.460557 1242.41752,434.777842 1228.95117,447.044084 C1215.98713,458.852088 1207.22843,470.547564 1202.11068,478.354988 C1187.78991,461.399652 1179.11068,439.610209 1179.10314,415.74942 L1179.10314,415.74942 Z M1276.42564,513.075986 C1254.76729,513.075986 1234.80499,505.912993 1218.61068,493.893852 C1222.05267,488.225058 1229.4326,477.342227 1241.18435,466.096868 C1253.27541,454.510441 1269.96625,442.582947 1291.75859,435.484919 C1299.16578,456.24884 1305.86822,479.984919 1310.97379,506.703596 C1300.21799,510.799304 1288.59618,513.075986 1276.42564,513.075986 L1276.42564,513.075986 Z M1331.50743,495.794084 C1326.5695,471.62993 1320.36184,449.840487 1313.54571,430.395012 C1319.86648,429.488399 1326.50163,428.976798 1333.50511,428.976798 L1333.75685,428.976798 L1333.77309,428.976798 L1333.78933,428.976798 C1345.39722,428.976798 1358.15302,430.419374 1371.98655,433.562645 C1367.19769,459.296404 1352.29223,481.459397 1331.50743,495.794084 L1331.50743,495.794084 Z" id="Dribbble"></path>
        </g>
    </g>
</svg>
